X: 605
T: Msza na 4ry g?osy – Sanctus
C: Robert Führer
L: 1/4
M: C
N: Derived from pl-kk--kk-i-382--028-004_fuhrer-robert--msza-na-4ry-glosy-sanctus.krn
%%staves [1 2 3 4]
V: 1 clef=treble
V: 2 clef=treble
V: 3 clef=bass
V: 4 clef=bass
K: C
[V:1] !accent!e2d2 | 
[V:2] c2B2 | 
[V:3] G,2G,2 | 
[V:4] C,2G,,2 | 
[V:1] e2g2 | 
[V:2] c2c2 | 
[V:3] G,2G,2 | 
[V:4] C,2E,2 | 
[V:1] c2d2 | 
[V:2] c2B2 | 
[V:3] E,2G,2 | 
[V:4] A,,2G,,2 | 
[V:1] !fermata!e4 | 
[V:2] !fermata!c4 | 
[V:3] !fermata!G,4 | 
[V:4] !fermata!C,4 | 
[V:1] e2ee | 
[V:2] ^c2cc | 
[V:3] A,2A,A, | 
[V:4] A,,2A,,A,, | 
[V:1] f2d2 | 
[V:2] d2d2 | 
[V:3] A,2A,2 | 
[V:4] D,2F,2 | 
[V:1] e3^d | 
[V:2] B2c2 | 
[V:3] ^G,2A,2 | 
[V:4] E,2E,2 | 
[V:1] e4 | 
[V:2] B4 | 
[V:3] ^G,4 | 
[V:4] E,4 | 
[V:1] c2cd | 
[V:2] A2AB | 
[V:3] A,E,E,=G, | 
[V:4] A,,2A,,=G,, | 
[V:1] e2cc | 
[V:2] c2G^G | 
[V:3] G,2E,E, | 
[V:4] C,2C,C, | 
[V:1] c4 | 
[V:2] A2_B2 | 
[V:3] F,2G,2 | 
[V:4] F,2E,2 | 
[V:1] c4 | 
[V:2] A4 | 
[V:3] F,4 | 
[V:4] F,4 | 
[V:1] f2d2 | 
[V:2] A2=B2 | 
[V:3] A,2G,2 | 
[V:4] D,2F,2 | 
[V:1] g2cd | 
[V:2] c2cc | 
[V:3] G,2E,^F, | 
[V:4] E,2A,,A,, | 
[V:1] e3d | 
[V:2] c2B2 | 
[V:3] G,3=F, | 
[V:4] G,,4 | 
[V:1] c2zc | 
[V:2] c2zG | 
[V:3] E,2zE, | 
[V:4] C,2zC, | 
[V:1] c4 | 
[V:2] G2A_B | 
[V:3] E,2F,G, | 
[V:4] C,4 | 
[V:1] c2cf | 
[V:2] !accent!A2cc | 
[V:3] F,2A,A, | 
[V:4] C,4 | 
[V:1] !accent!f4 | 
[V:2] !accent!c2=B2 | 
[V:3] _A,4 | 
[V:4] C,4 | 
[V:1] e4 |]  
[V:2] !fermata!c4 |]  
[V:3] !fermata!G,4 |]  
[V:4] !fermata!C,4 |]  

